icon/ir/pharmacy-squared-cross.svg

<svg stroke-width="1.5" viewBox="0 0 24 24" fill="none" xmlns="http://www.w3.org/2000/svg" height="1em" width="1em">
  <path d="M21 8V16C21 18.7614 18.7614 21 16 21H8C5.23858 21 3 18.7614 3 16V8C3 5.23858 5.23858 3 8 3H16C18.7614 3 21 5.23858 21 8Z" stroke="currentColor" stroke-linecap="round" stroke-linejoin="round"/>
  <path d="M13.9 18H10.1C9.76863 18 9.5 17.7314 9.5 17.4V15.1C9.5 14.7686 9.23137 14.5 8.9 14.5H6.6C6.26863 14.5 6 14.2314 6 13.9V10.1C6 9.76863 6.26863 9.5 6.6 9.5H8.9C9.23137 9.5 9.5 9.23137 9.5 8.9V6.6C9.5 6.26863 9.76863 6 10.1 6H13.9C14.2314 6 14.5 6.26863 14.5 6.6V8.9C14.5 9.23137 14.7686 9.5 15.1 9.5H17.4C17.7314 9.5 18 9.76863 18 10.1V13.9C18 14.2314 17.7314 14.5 17.4 14.5H15.1C14.7686 14.5 14.5 14.7686 14.5 15.1V17.4C14.5 17.7314 14.2314 18 13.9 18Z" stroke="currentColor" stroke-width="1.5"/>
</svg>

<svg width="24" height="24" stroke-width="1.5" fill="none" xmlns="http://www.w3.org/2000/svg"><path d="M21 8v8a5 5 0 0 1-5 5H8a5 5 0 0 1-5-5V8a5 5 0 0 1 5-5h8a5 5 0 0 1 5 5Z" stroke="currentColor" stroke-linecap="round" stroke-linejoin="round"/><path d="M13.9 18h-3.8a.6.6 0 0 1-.6-.6v-2.3a.6.6 0 0 0-.6-.6H6.6a.6.6 0 0 1-.6-.6v-3.8a.6.6 0 0 1 .6-.6h2.3a.6.6 0 0 0 .6-.6V6.6a.6.6 0 0 1 .6-.6h3.8a.6.6 0 0 1 .6.6v2.3a.6.6 0 0 0 .6.6h2.3a.6.6 0 0 1 .6.6v3.8a.6.6 0 0 1-.6.6h-2.3a.6.6 0 0 0-.6.6v2.3a.6.6 0 0 1-.6.6Z" stroke="currentColor"/></svg>
